X:3533
L:1/16
M:2/4
K:G
 D2DD | G2GG A2GA | B2>B2 d2>d2 | edcB dBAG | A4 D2DD | G2GG A2GA | B4 d2>d2 | EdcB cBAG | G4 || 
 d2<^c2 | d2<D2 d2<^c2 | d2<D2 D2DD | G2GA B2AG | F2E2 e2<^d2 | e2<E2 E2<^d2 | e2<E2 =D2DD | 
 G2GA B2AG | F2E2 || D2DD | G2GG A2GA | B2>B2 d2>d2 | edcB cBAG | A4 D2DD | G2GG A2GA | B4 d2d2 | 
 edcB cBAG | G4 ||

